X: 20174
Q: "Very slow."
M: 3/4
L: 1/8
K: Am
E4 ^G2 | A4 c>d | {c2}e4 c2 | d2 e2 g2 |\
{f2}e4 G2 | A4 c2 |\
[1 {Bc}d4 (cB) | {B2}e4 A2 :|\
[2 {Bc}d4 c2 | B2 e2 |]
|: B>A |\
[1 {f2}e4 d>c | B2 e2 A2 | G E3 ^G2 | A4 :|\
[4 e4 d>B | c2 e2 Ha3 | B e3 ^G2 | {B2}A4 |]


